X: 4
T:Clog, The
M:4/4
L:1/8
R:Clog
K:G
A2AG FGAB|cBce d2dB|A2AG FGAB|cAF2 G3B|!
A2AG FGAB|cBce d2dB|A2AG FGAB|cAF2 G4|]!
dggg edcB|cde2 d4|dggg edcB|AGFA G2GB|!
dggg edcB|cde2 d4|A2AG FGAB|cAF2 G4|]!
